components/2.0/icon/icons/icon-gear-22px.svg

<?xml version="1.0" encoding="UTF-8" standalone="no"?>
<svg width="22px" height="22px" viewBox="0 0 22 22" version="1.1" xmlns="http://www.w3.org/2000/svg" xmlns:xlink="http://www.w3.org/1999/xlink" xmlns:sketch="http://www.bohemiancoding.com/sketch/ns">
    <!-- Generator: Sketch 3.4.4 (17249) - http://www.bohemiancoding.com/sketch -->
    <title>icon-gear-22px</title>
    <desc>Created with Sketch.</desc>
    <defs></defs>
    <g id="22px" stroke="none" stroke-width="1" fill="none" fill-rule="evenodd" sketch:type="MSPage">
        <g id="icon-gear-22px" sketch:type="MSArtboardGroup" fill="#3D4752">
            <path d="M11,13.8994 C9.619,13.8994 8.5,12.7804 8.5,11.3994 C8.5,10.0184 9.619,8.8994 11,8.8994 C12.381,8.8994 13.5,10.0184 13.5,11.3994 C13.5,12.7804 12.381,13.8994 11,13.8994 M20,12.8994 L20,9.8994 C20,9.6234 19.776,9.3994 19.5,9.3994 L16.651,9.3994 C16.403,8.6984 16.032,8.0574 15.558,7.5044 L17.115,4.8084 C16.137,3.9014 14.963,3.2024 13.656,2.7984 L12.094,5.5034 C11.739,5.4384 11.374,5.3994 11,5.3994 C10.626,5.3994 10.261,5.4384 9.906,5.5034 L8.344,2.7984 C7.037,3.2024 5.863,3.9014 4.885,4.8084 L6.442,7.5044 C5.968,8.0574 5.597,8.6984 5.349,9.3994 L2.5,9.3994 C2.224,9.3994 2,9.6234 2,9.8994 L2,12.8994 C2,13.1754 2.224,13.3994 2.5,13.3994 L5.349,13.3994 C5.597,14.1004 5.968,14.7414 6.442,15.2944 L4.885,17.9904 C5.863,18.8974 7.037,19.5964 8.344,20.0004 L9.906,17.2954 C10.261,17.3604 10.626,17.3994 11,17.3994 C11.374,17.3994 11.739,17.3604 12.094,17.2954 L13.656,20.0004 C14.963,19.5964 16.137,18.8974 17.115,17.9904 L15.558,15.2944 C16.032,14.7414 16.403,14.1004 16.651,13.3994 L19.5,13.3994 C19.776,13.3994 20,13.1754 20,12.8994" id="Fill-1" sketch:type="MSShapeGroup"></path>
        </g>
    </g>
</svg>

<svg width="22" height="22" xmlns="http://www.w3.org/2000/svg"><path d="M11 14c-1.4 0-2.5-1.2-2.5-2.6C8.5 10 9.5 9 11 9c1.4 0 2.5 1 2.5 2.4S12.5 14 11 14m9-1v-3c0-.4-.2-.6-.5-.6h-2.8l-1-2L17 5c-1-1-2-1.6-3.3-2L12 5.5h-2L8.2 2.8C7 3.2 6 3.8 5 4.8l1.4 2.7c-.4.6-.8 1.2-1 2h-3c-.2 0-.4 0-.4.4v3c0 .2.2.4.5.4h2.8l1 2L5 18c1 1 2 1.6 3.3 2l1.6-2.7h2l1.7 2.7c1.3-.4 2.4-1 3.4-2l-1.4-2.7c.4-.6.8-1.2 1-2h3c.2 0 .4 0 .4-.4" fill="#3D4752" fill-rule="evenodd"/></svg>
